packages/web-icons/svgs/user_4.svg

<svg viewBox="0 0 50 48" xmlns="http://www.w3.org/2000/svg" class="ridi_icon"><path d="M48.9 48H1.1C.5 48 0 47.5 0 46.9v-5.3c0-.8 0-3.2 11.1-7.3 6.5-2.4 7.5-4.1 7.5-7.3 0-.7-.2-.9-.6-1.4-.7-.8-1.6-1.8-2.1-4.6 0-.1-.1-.2-.1-.2s-.1 0-.2-.1c-1.2-.6-1.9-1.5-2.1-4.2v-.1c0-1.3.4-2.1.8-2.6-.1-.8-.4-2.5-.5-3.9-.2-1.6.3-4.3 2.3-6.5C17.5 1.8 20.2 0 25 0c4.8 0 7.5 1.8 8.9 3.4 2 2.2 2.5 4.9 2.4 6.6-.1 1.4-.4 3.1-.6 3.9.4.5.8 1.3.8 2.6v.1c-.2 2.7-1 3.6-2.1 4.2-.1 0-.2.1-.2.1v.2c-.5 2.8-1.4 3.8-2.1 4.6-.5.5-.6.7-.6 1.4 0 3.9 2.2 5.3 7.5 7.3 11 3.9 11 6.3 11 7.1v5.3c0 .7-.5 1.2-1.1 1.2zM2.3 45.7h45.4v-4.2c-.1-.5-2-2.4-9.6-5.1-6-2.2-9-4.2-9-9.4 0-1.6.6-2.3 1.2-2.9.6-.6 1.2-1.3 1.6-3.5.2-1.3 1-1.7 1.5-1.9.4-.2.7-.3.8-2.2 0-.7-.2-1-.3-1.1-.5-.2-.7-.7-.6-1.2 0 0 .5-2.5.6-4.4.1-.9-.2-3.1-1.8-4.8-1.6-1.7-4-2.6-7.2-2.6s-5.6.9-7.2 2.6c-1.5 1.7-1.7 3.8-1.6 4.7.2 1.9.6 4.4.6 4.4.1.6-.1 1.1-.6 1.2-.1.1-.3.4-.3 1.1.1 1.9.5 2.1.8 2.2.5.2 1.3.6 1.5 1.9.4 2.2 1 2.9 1.6 3.5.6.6 1.2 1.3 1.2 2.9 0 5.2-3 7.2-9 9.4-7.6 2.8-9.5 4.7-9.6 5.2v4.2z"/></svg>

<?xml version="1.0" encoding="UTF-8"?>
<svg width="50px" height="48px" viewBox="0 0 50 48" version="1.1" xmlns="http://www.w3.org/2000/svg">
  <!-- Generator: Sketch 41.2 (35397) - http://www.bohemiancoding.com/sketch -->
  <title>user_4</title>
  <desc>Created with Sketch.</desc>
  <defs></defs>
  <g id="Page-1" stroke="none" stroke-width="1" fill="none" fill-rule="evenodd">
    <g id="user_4" fill="#000000">
      <g id="Layer_1">
        <path d="M48.9,48 L1.1,48 C0.5,48 0,47.5 0,46.9 L0,41.6 C0,40.8 0,38.4 11.1,34.3 C17.6,31.9 18.6,30.2 18.6,27 C18.6,26.3 18.4,26.1 18,25.6 C17.3,24.8 16.4,23.8 15.9,21 C15.9,20.9 15.8,20.8 15.8,20.8 C15.8,20.8 15.7,20.8 15.6,20.7 C14.4,20.1 13.7,19.2 13.5,16.5 L13.5,16.4 C13.5,15.1 13.9,14.3 14.3,13.8 C14.2,13 13.9,11.3 13.8,9.9 C13.6,8.3 14.1,5.6 16.1,3.4 C17.5,1.8 20.2,0 25,0 C29.8,0 32.5,1.8 33.9,3.4 C35.9,5.6 36.4,8.3 36.3,10 C36.2,11.4 35.9,13.1 35.7,13.9 C36.1,14.4 36.5,15.2 36.5,16.5 L36.5,16.6 C36.3,19.3 35.5,20.2 34.4,20.8 C34.3,20.8 34.2,20.9 34.2,20.9 L34.2,21.1 C33.7,23.9 32.8,24.9 32.1,25.7 C31.6,26.2 31.5,26.4 31.5,27.1 C31.5,31 33.7,32.4 39,34.4 L39,34.4 C50,38.3 50,40.7 50,41.5 L50,46.8 C50,47.5 49.5,48 48.9,48 L48.9,48 Z M2.3,45.7 L47.7,45.7 L47.7,41.5 C47.6,41 45.7,39.1 38.1,36.4 L38.1,36.4 C32.1,34.2 29.1,32.2 29.1,27 C29.1,25.4 29.7,24.7 30.3,24.1 C30.9,23.5 31.5,22.8 31.9,20.6 C32.1,19.3 32.9,18.9 33.4,18.7 C33.8,18.5 34.1,18.4 34.2,16.5 C34.2,15.8 34,15.5 33.9,15.4 C33.4,15.2 33.2,14.7 33.3,14.2 C33.3,14.2 33.8,11.7 33.9,9.8 C34,8.9 33.7,6.7 32.1,5 C30.5,3.3 28.1,2.4 24.9,2.4 C21.7,2.4 19.3,3.3 17.7,5 C16.2,6.7 16,8.8 16.1,9.7 C16.3,11.6 16.7,14.1 16.7,14.1 C16.8,14.7 16.6,15.2 16.1,15.3 C16,15.4 15.8,15.7 15.8,16.4 C15.9,18.3 16.3,18.5 16.6,18.6 C17.1,18.8 17.9,19.2 18.1,20.5 C18.5,22.7 19.1,23.4 19.7,24 C20.3,24.6 20.9,25.3 20.9,26.9 C20.9,32.1 17.9,34.1 11.9,36.3 C4.3,39.1 2.4,41 2.3,41.5 L2.3,45.7 Z" id="Shape"></path>
      </g>
    </g>
  </g>
</svg>
